X: 1
T: The Bramble Bush
T: 8x32J 3C (RSCDS bk 25)
T: 1C cLc, lead up, cc; sc, stL; cpcp; 1,3 m and 1,2 w stR; 1,2 m and 1,3 w stL
P: Dinnet House
C: RSCDS bk 25, arr. Terry Traub 2013-01-13
C: orig. in D major
M: 6/8
R: jig
K: C
|: E|"C"G2 A GEC|"F"DEC "G"B,A,G,|"C"G2 A GEF|"G"GAB "F"cBA|"C"G2 A GEC|"Dm"DEC "G"B,A,G,|
"F"A,B,C "G"B,A,G,|"C"C3 C2 :||: G| "C"ceg gec|"Dm"dec "G"BAG|"C"ceg gec|
"G"gab "C"c'ba|"F"c'ba "C"gfe|"Dm"dec "G"BAG|"F"ABc "G"BAG|"C"c3 c2 :|
